X:64
T:Une cigale
O:France
R:Ronde
Z:Transcrit et/ou corrig? par Michel BELLON - 2005-09-10
Z:Pour toute observation mailto:galouvielle@free.fr
M:2/4
L:1/8
Q:1/4=116
K:G
Z8 S |: [P:A] G2 AB | A2D2 | GA BG | A4 :| 
w:U-ne ci-ga-le, le beau temps pas-s? le beau temps pas-s?
[P:B] AA AA | dc BA | G2G2 | [P:Intro]AA AA dc BA | G4 S |]
w: u-ne ci-ga-le, le beau temps pas-s? n'a rien gar-d?.
<end>
<start>
